SVG/calculator.svg

<?xml version="1.0" encoding="utf-8"?>
<!-- Generated by IcoMoon.io -->
<!DOCTYPE svg PUBLIC "-//W3C//DTD SVG 1.1//EN" "http://www.w3.org/Graphics/SVG/1.1/DTD/svg11.dtd">
<svg version="1.1" xmlns="http://www.w3.org/2000/svg" xmlns:xlink="http://www.w3.org/1999/xlink" width="13" height="14" viewBox="0 0 13 14">
<path fill="#444444" d="M3 12q0-0.414-0.293-0.707t-0.707-0.293-0.707 0.293-0.293 0.707 0.293 0.707 0.707 0.293 0.707-0.293 0.293-0.707zM6 12q0-0.414-0.293-0.707t-0.707-0.293-0.707 0.293-0.293 0.707 0.293 0.707 0.707 0.293 0.707-0.293 0.293-0.707zM3 9q0-0.414-0.293-0.707t-0.707-0.293-0.707 0.293-0.293 0.707 0.293 0.707 0.707 0.293 0.707-0.293 0.293-0.707zM9 12q0-0.414-0.293-0.707t-0.707-0.293-0.707 0.293-0.293 0.707 0.293 0.707 0.707 0.293 0.707-0.293 0.293-0.707zM6 9q0-0.414-0.293-0.707t-0.707-0.293-0.707 0.293-0.293 0.707 0.293 0.707 0.707 0.293 0.707-0.293 0.293-0.707zM3 6q0-0.414-0.293-0.707t-0.707-0.293-0.707 0.293-0.293 0.707 0.293 0.707 0.707 0.293 0.707-0.293 0.293-0.707zM9 9q0-0.414-0.293-0.707t-0.707-0.293-0.707 0.293-0.293 0.707 0.293 0.707 0.707 0.293 0.707-0.293 0.293-0.707zM6 6q0-0.414-0.293-0.707t-0.707-0.293-0.707 0.293-0.293 0.707 0.293 0.707 0.707 0.293 0.707-0.293 0.293-0.707zM12 12v-3q0-0.406-0.297-0.703t-0.703-0.297-0.703 0.297-0.297 0.703v3q0 0.406 0.297 0.703t0.703 0.297 0.703-0.297 0.297-0.703zM9 6q0-0.414-0.293-0.707t-0.707-0.293-0.707 0.293-0.293 0.707 0.293 0.707 0.707 0.293 0.707-0.293 0.293-0.707zM12 3.5v-2q0-0.203-0.148-0.352t-0.352-0.148h-10q-0.203 0-0.352 0.148t-0.148 0.352v2q0 0.203 0.148 0.352t0.352 0.148h10q0.203 0 0.352-0.148t0.148-0.352zM12 6q0-0.414-0.293-0.707t-0.707-0.293-0.707 0.293-0.293 0.707 0.293 0.707 0.707 0.293 0.707-0.293 0.293-0.707zM13 1v12q0 0.406-0.297 0.703t-0.703 0.297h-11q-0.406 0-0.703-0.297t-0.297-0.703v-12q0-0.406 0.297-0.703t0.703-0.297h11q0.406 0 0.703 0.297t0.297 0.703z"></path>
</svg>

<svg xmlns="http://www.w3.org/2000/svg" viewBox="0 0 13 14"><path d="M3 12q0-.414-.293-.707T2 11t-.707.293T1 12t.293.707T2 13t.707-.293T3 12zm3 0q0-.414-.293-.707T5 11t-.707.293T4 12t.293.707T5 13t.707-.293T6 12zM3 9q0-.414-.293-.707T2 8t-.707.293T1 9t.293.707T2 10t.707-.293T3 9zm6 3q0-.414-.293-.707T8 11t-.707.293T7 12t.293.707T8 13t.707-.293T9 12zM6 9q0-.414-.293-.707T5 8t-.707.293T4 9t.293.707T5 10t.707-.293T6 9zM3 6q0-.414-.293-.707T2 5t-.707.293T1 6t.293.707T2 7t.707-.293T3 6zm6 3q0-.414-.293-.707T8 8t-.707.293T7 9t.293.707T8 10t.707-.293T9 9zM6 6q0-.414-.293-.707T5 5t-.707.293T4 6t.293.707T5 7t.707-.293T6 6zm6 6V9q0-.406-.297-.703T11 8t-.703.297T10 9v3q0 .406.297.703T11 13t.703-.297T12 12zM9 6q0-.414-.293-.707T8 5t-.707.293T7 6t.293.707T8 7t.707-.293T9 6zm3-2.5v-2q0-.203-.148-.352T11.5 1h-10q-.203 0-.352.148T1 1.5v2q0 .203.148.352T1.5 4h10q.203 0 .352-.148T12 3.5zM12 6q0-.414-.293-.707T11 5t-.707.293T10 6t.293.707T11 7t.707-.293T12 6zm1-5v12q0 .406-.297.703T12 14H1q-.406 0-.703-.297T0 13V1Q0 .594.297.297T1 0h11q.406 0 .703.297T13 1z" /></svg>
